src/xmb/flatui/Sony - PlayStation Portable-content.svg

<?xml version="1.0"?>
<svg version="1.1" xmlns="http://www.w3.org/2000/svg" xmlns:xlink="http://www.w3.org/1999/xlink" width="64" height="64">
    <desc iVinci="yes" version="4.6" gridStep="4" showGrid="yes" snapToGrid="no" codePlatform="0"/>
    <g id="Layer1" name="Layer 1" opacity="1">
        <g id="Shape1">
            <desc shapeID="1" type="0" basicInfo-basicType="0" basicInfo-roundedRectRadius="12" basicInfo-polygonSides="6" basicInfo-starPoints="5" bounding="rect(-31,-31.0247,62,62.0494)" text="" font-familyName="" font-pixelSize="20" font-bold="0" font-underline="0" font-alignment="1" strokeStyle="0" markerStart="0" markerEnd="0" shadowEnabled="0" shadowOffsetX="0" shadowOffsetY="2" shadowBlur="4" shadowOpacity="160" blurEnabled="0" blurRadius="4" transform="matrix(0.806452,0,0,0.806452,32,32.0199)" pers-center="0,0" pers-size="0,0" pers-start="0,0" pers-end="0,0" locked="0" mesh="" flag=""/>
            <path id="shapePath1" d="M32,7 C18.1929,7 6.99999,18.193 6.99999,32 C6.99999,32 6.99999,43.9442 6.99999,50.6729 C6.99999,56.4164 24.095,57.0399 31.9828,57.0399 C39.992,57.0399 57,56.3219 57,50.6729 C57,43.927 57,32.0001 57,32.0001 C57,18.1929 45.807,7 32,7 M32,28.7742 C33.7815,28.7742 35.2258,30.2184 35.2258,32 C35.2258,33.7816 33.7816,35.2258 32,35.2258 C30.2185,35.2259 28.7742,33.7816 28.7742,32 C28.7742,30.2185 30.2184,28.7742 32,28.7742 Z" style="stroke:none;fill-rule:evenodd;fill:#2c3e50;fill-opacity:1;"/>
        </g>
        <g id="Shape2">
            <desc shapeID="2" type="0" basicInfo-basicType="0" basicInfo-roundedRectRadius="12" basicInfo-polygonSides="6" basicInfo-starPoints="5" bounding="rect(-31,-31,62,62)" text="" font-familyName="" font-pixelSize="20" font-bold="0" font-underline="0" font-alignment="1" strokeStyle="0" markerStart="0" markerEnd="0" shadowEnabled="0" shadowOffsetX="0" shadowOffsetY="2" shadowBlur="4" shadowOpacity="160" blurEnabled="0" blurRadius="4" transform="matrix(0.725807,0.00025335,-0.00025335,0.725807,32,32)" pers-center="0,0" pers-size="0,0" pers-start="0,0" pers-end="0,0" locked="0" mesh="" flag=""/>
            <path id="shapePath2" d="M32.0079,9.49999 C19.5815,9.49565 9.50433,19.5658 9.49999,31.9921 C9.49566,44.4185 19.5658,54.4957 31.9921,54.5 C44.4185,54.5043 54.4957,44.4342 54.5,32.0079 C54.5043,19.5815 44.4342,9.50433 32.0079,9.49999 M32.001,29.0968 C33.6044,29.0973 34.9038,30.3976 34.9032,32.001 C34.9027,33.6044 33.6024,34.9038 31.999,34.9032 C30.3956,34.9027 29.0962,33.6024 29.0968,31.999 C29.0973,30.3956 30.3976,29.0962 32.001,29.0968 Z" style="stroke:none;fill-rule:evenodd;fill:#2c3e50;fill-opacity:1;"/>
        </g>
        <g id="Shape3">
            <desc shapeID="3" type="0" basicInfo-basicType="0" basicInfo-roundedRectRadius="12" basicInfo-polygonSides="6" basicInfo-starPoints="5" bounding="rect(-30,-30,60,60)" text="" font-familyName="" font-pixelSize="20" font-bold="0" font-underline="0" font-alignment="1" strokeStyle="0" markerStart="0" markerEnd="0" shadowEnabled="0" shadowOffsetX="0" shadowOffsetY="2" shadowBlur="4" shadowOpacity="160" blurEnabled="0" blurRadius="4" transform="matrix(0.725807,0.00025335,-0.00025335,0.725807,32,32)" pers-center="0,0" pers-size="0,0" pers-start="0,0" pers-end="0,0" locked="0" mesh="" flag=""/>
            <path id="shapePath3" d="M32.0076,10.2258 C19.9821,10.2216 10.23,19.9669 10.2258,31.9924 C10.2216,44.0179 19.9669,53.77 31.9924,53.7742 C44.0179,53.7784 53.77,44.0331 53.7742,32.0076 C53.7784,19.9821 44.0331,10.23 32.0076,10.2258 M32.001,29.0968 C33.6044,29.0973 34.9038,30.3976 34.9032,32.001 C34.9027,33.6044 33.6024,34.9038 31.999,34.9032 C30.3956,34.9027 29.0962,33.6024 29.0968,31.999 C29.0973,30.3956 30.3976,29.0962 32.001,29.0968 Z" style="stroke:none;fill-rule:evenodd;fill:#bdc3c7;fill-opacity:1;"/>
        </g>
        <g id="Shape4">
            <desc shapeID="4" type="0" basicInfo-basicType="0" basicInfo-roundedRectRadius="12" basicInfo-polygonSides="6" basicInfo-starPoints="5" bounding="rect(-12,-12,24,24)" text="" font-familyName="" font-pixelSize="20" font-bold="0" font-underline="0" font-alignment="1" strokeStyle="0" markerStart="0" markerEnd="0" shadowEnabled="0" shadowOffsetX="0" shadowOffsetY="2" shadowBlur="4" shadowOpacity="160" blurEnabled="0" blurRadius="4" transform="matrix(0.725807,0.00025335,-0.00025335,0.725807,32,32)" pers-center="0,0" pers-size="0,0" pers-start="0,0" pers-end="0,0" locked="0" mesh="" flag=""/>
            <path id="shapePath4" d="M32.003,23.2903 C27.1928,23.2886 23.292,27.1867 23.2903,31.997 C23.2886,36.8072 27.1868,40.708 31.997,40.7097 C36.8072,40.7114 40.708,36.8133 40.7097,32.003 C40.7114,27.1928 36.8133,23.292 32.003,23.2903 M32.001,29.0968 C33.6044,29.0973 34.9038,30.3976 34.9032,32.001 C34.9027,33.6044 33.6024,34.9038 31.999,34.9032 C30.3956,34.9027 29.0962,33.6024 29.0968,31.999 C29.0973,30.3956 30.3976,29.0962 32.001,29.0968 Z" style="stroke:#2c3e50;stroke-opacity:1;stroke-width:1;stroke-linejoin:miter;stroke-miterlimit:2;stroke-linecap:butt;fill-rule:evenodd;fill:#34495e;fill-opacity:1;"/>
        </g>
        <g id="Shape5">
            <desc shapeID="5" type="0" basicInfo-basicType="0" basicInfo-roundedRectRadius="12" basicInfo-polygonSides="6" basicInfo-starPoints="5" bounding="rect(-14,-1.99998,28,3.99996)" text="" font-familyName="" font-pixelSize="20" font-bold="0" font-underline="0" font-alignment="1" strokeStyle="0" markerStart="0" markerEnd="0" shadowEnabled="0" shadowOffsetX="0" shadowOffsetY="2" shadowBlur="4" shadowOpacity="160" blurEnabled="0" blurRadius="4" transform="matrix(0.725807,0.00025335,-0.00025335,0.725807,32.0043,19.6613)" pers-center="0,0" pers-size="0,0" pers-start="0,0" pers-end="0,0" locked="0" mesh="" flag=""/>
            <path id="shapePath5" d="M21.843,19.6577 C21.8433,18.856 22.4804,18.2063 23.2661,18.2066 L40.7435,18.2127 C41.5292,18.213 42.1659,18.8631 42.1656,19.6648 C42.1653,20.4666 41.5282,21.1162 40.7425,21.1159 L23.2651,21.1098 C22.4794,21.1096 21.8427,20.4595 21.843,19.6577 Z" style="stroke:none;fill-rule:evenodd;fill:#3498db;fill-opacity:1;"/>
        </g>
    </g>
</svg>

<svg xmlns="http://www.w3.org/2000/svg" width="64" height="64"><path d="M32 7C18.193 7 7 18.193 7 32v18.673c0 5.743 17.095 6.367 24.983 6.367 8.009 0 25.017-.718 25.017-6.367V32C57 18.193 45.807 7 32 7m0 21.774a3.226 3.226 0 1 1 0 6.452 3.226 3.226 0 0 1 0-6.452" style="stroke:none;fill-rule:evenodd;fill:#2c3e50;fill-opacity:1"/><path d="M32.008 9.5C19.58 9.496 9.504 19.566 9.5 31.992S19.566 54.496 31.992 54.5 54.496 44.434 54.5 32.008 44.434 9.504 32.008 9.5M32 29.097a2.903 2.903 0 1 1-.002 5.806A2.903 2.903 0 0 1 32 29.097" style="stroke:none;fill-rule:evenodd;fill:#2c3e50;fill-opacity:1"/><path d="M32.008 10.226c-12.026-.004-21.778 9.74-21.782 21.766s9.74 21.778 21.766 21.782 21.778-9.74 21.782-21.766-9.74-21.778-21.766-21.782M32 29.096a2.903 2.903 0 1 1-.002 5.807A2.903 2.903 0 0 1 32 29.097" style="stroke:none;fill-rule:evenodd;fill:#bdc3c7;fill-opacity:1"/><path d="M32.003 23.29a8.71 8.71 0 1 0-.006 17.42 8.71 8.71 0 0 0 .006-17.42m-.002 5.807a2.903 2.903 0 1 1-.002 5.806 2.903 2.903 0 0 1 .002-5.806Z" style="stroke:#2c3e50;stroke-opacity:1;stroke-width:1;stroke-linejoin:miter;stroke-miterlimit:2;stroke-linecap:butt;fill-rule:evenodd;fill:#34495e;fill-opacity:1"/><path d="M21.843 19.658c0-.802.637-1.452 1.423-1.451l17.478.006c.785 0 1.422.65 1.422 1.452s-.638 1.451-1.423 1.45l-17.478-.005c-.786 0-1.422-.65-1.422-1.452" style="stroke:none;fill-rule:evenodd;fill:#3498db;fill-opacity:1"/></svg>
